X:18009
T:Roddy McCorley
T:Sean South
R:March
C:Trad. Song
O:Ireland
M:4/4
L:1/8
Q:1/4=120
K:G
GA|"G"B2ABD2GA|B3AG3D|"C"E2G2G2A2|"G"G4-G2Bc|
d2d2d2Bd|"C"e2e2"G"d3B|"Em"G2E2"Am"c2B2|"D"A4-A2Bc|
"G"d2d2d2Bd|"C"e2e2"G"d3B|"Em"G2E2"Am"c2B2|"D"A4-A2GA|
"G"B2ABD2GA|B3AG2DD|"C"E2G2G2-"Am"GA|"G"G4-G2:|]

